X:6
T:The Cook in the Kitchen
R:jig
M:6/8
C:Traditional / Tom Wagner / Key of G
S:Tom Wagner
Z:John McChesney-Young, Feb. 18, 2002; cords Tom Wagner, March 14, 2004
K:G
D|"G"DGG GAG|"F"=FDE F2 D|"G"DGGG FG|"D"A2 dcAG|
"G"DGG GAG|"F"=FDE F2 d|"C"cAG "D"FGA|"G"BGFG2:|
A|"G"B>cB BAG|"D"A>BA AGF|"C"G>AG GFG|"D"A2 dcAG|
"G"B>cB BAG|"D"A>BA A2 d|"C"cAG "D"FGA|"G"BGF G2:|
A|"D"d2 e f2 g|a2 g fed|"C"cAG "D"FGA|"G"BAB "C"cAG|
"D"d2 e f2 g|a2 g fed|"C"cAG "D"FGA|"G"BGF G2:|
